StripePaymentsUI/StripePaymentsUI/Resources/StripePaymentsUI.xcassets/stp_icon_bank.imageset/icon-pm-bank-color.svg

<svg fill="none" height="16" viewBox="0 0 16 16" width="16" xmlns="http://www.w3.org/2000/svg"><path clip-rule="evenodd" d="m5 7.5v6.5h1.5v-6.5h3v6.5h1.5v-6.5h3v6.5h.9998c.5523 0 1 .4477 1 1v1h-15.99963306v-1c0-.5523.44771506-1 1.00000306-1h.99983v-6.5zm3-7.5c4.681 2.57189 7.181 3.94988 7.4998 4.13397.4783.27615.6422.88774.3661 1.36603-.1885.32646-.5333.50644-.8852.5h-13.96136c-.351975.00644-.696724-.17354-.885201-.5-.276137-.47829-.1122661-1.08988.366017-1.36603.318855-.18409 2.818804-1.56208 7.499844-4.13397z" fill="#1a1a1a" fill-opacity=".6" fill-rule="evenodd"/></svg>

<svg width="16" height="16" viewBox="0 0 16 16" fill="none" xmlns="http://www.w3.org/2000/svg">
<path fill-rule="evenodd" clip-rule="evenodd" d="M5 7.5V14H6.5V7.5H9.5V14H11V7.5H14V14H14.9998C15.5521 14 15.9998 14.4477 15.9998 15V16H0.000166942V15C0.000166942 14.4477 0.447882 14 1.00017 14H2V7.5H5ZM8 0C12.681 2.57189 15.181 3.94988 15.4998 4.13397C15.9781 4.41012 16.142 5.02171 15.8659 5.5C15.6774 5.82646 15.3326 6.00644 14.9807 6H1.01934C0.667365 6.00644 0.322616 5.82646 0.134139 5.5C-0.141998 5.02171 0.0218729 4.41012 0.500156 4.13397C0.819011 3.94988 3.31896 2.57189 8 0Z" fill="#1A1A1A" fill-opacity="0.6"/>
</svg>
